X: 24185
T: Lord Gordon's
R: reel
M: 4/4
K: Dmajor
dB|vA(uD F/E/D) A(D F/E/D)|A(D F/E/D) FAdc|vB(uE ~E2) (B,E~E2)|(BE~E2 BA)FA|
v(dcd)f e(cdB)|A/B/A ^GB uA2 v(Bc)|(ud/c/B c/B/A B)(FA)(F|EF)vGuA v(Bc d/c/B|
vA)(uD F/E/D) A,DFA|vA(uD F/E/D) FA(dc)|(uBE) vE/E/E (dE) E/E/E|(BE) E/E/E (uBA)FA|
v(dcd)f eu(cd)B|(uA/B/A) ^GB A2 u(Bc|d/c/B c/B/A B)(FA)(F|EF)vGuA (vBc)de||
uf2df afdg|vf(cd)vf (uaf)(vgf|e)(fg)(a b)(ge)(vc|d)(cBA) v^GA(Bc|
vd)(cd)f (uec)dB|vA(uFdF) (A2Bc)|(ud/e/d c/d/c) (B/c/BA)(F|EF)vGuA (vBc)de|
uf2df afdg|vf(cd)vf (uaf)(vgf|e)(fg)(a b)(ge)(vc|d/c/B) (c/B/A) ^GABc|
vd(uf~f2) e(B~B2)|A(FdF) (A2Bc)|(ud/c/B c/B/A B)(FA)(F|EF)GA (vBc)de||
|:(ufa) a/a/a uf(vda)(ud|fa) a/a/a uf(vda)(ud|fb) b/b/b ufveubve|(fb) b/b/b febe|
(ufg)fe (dcd)(uB|uA/B/A) ^GB (vABd)(uf|a)fe(vc dBA)(uF|1 EF)GA (vBc)de:|2 (EF)GA (Bcd)uB||
vA(udcd fdcd)|(vAdcd f)(udcd)|(egfg b)(gfg)|(egfg b)(geg)|
v~f3e d(ucd)B|(uA/B/A) ^GB (ABd)(f|a)fe(vc dBA)(uF|EF)GA (Bcd)B
vA(ud{e}dc) defd|vA(ud{e}dc) defd|ve(uf~gf) (v~gfgf)|(uef{a}gf) (~gfga)|
(u~f3e) (dcd)(B|A/B/A) ^GB (ABd)(f|a)fe(vc dBA)(uF|EF)GA (Bcd)g||
|:vf(a~a2 {b}af)de|vf(ua{b}af) (a/b/a gf)|(ugbef) (vgbef)|(ugbeg) (bge)(uf|
ug2(vbg f)(ua{b}ag|fe)dB (vABd)(f|a)fe(vc dBA) (uF|1 EF)GA (Bcd)g:|2 EF)GA (Bc) (ud/c/B)||
"Final Ending" (EF)GA [G2B2] z2|[F4A4]||

